X:1
T:Highland Fling [1]
T:Highland Fling [1]
T:Carl Volti
C:Carl Volti
L:1/8
M:4/4
K:D
V:1 treble 
V:1
 A>BA>F (A<d) d2 | (B<d) d2 (A<d) d2 | A>BA>F (A<d) d2 | g>ef>d e>d (B<d) :| (f<a) a2 (f<a) a2 | %5
 a>ba>g f>ef>d | (g<b) b2 g<b b2 | g>ag>f e>dc>A | (f<a) a2 (f<a) a2 | a>ba>g f>ef>d | %10
 b>ga>f g>ef>d | e>c (3ABc d2 d2 || %12

